**kern	**kern
*part1	*part1
*staff2	*staff1
*I"Piano	*
*clefF4	*clefG2
*k[b-e-a-]	*k[b-e-a-]
=1	=1
4A-	(4e- 4cc
4G	4e- 4b-
=	=
4D 4B-	4f 4a-
4E- 4B-	4e- 4g
=	=
*^	*
4B-	4A-	4d 4f
*v	*v	*
(8GL	8e-L
8E-J)	8gJ)
=	=
4B-	(4e- 4g
4BB-	4d) 4f
=	=
(4E-	(4B- 4g
4C	4e- 4an
=	=
4D 4B-	4f 4b-
4E- 4B-	4g 4cc
=	=
4F 4B-	4f 4dd
4F 4An	4e- 4cc
=	=
(4BB-) 4B-	2d) 2b-
4A-X	.
=	=
*^	*
2G	2B-)	2e- 2b-
*v	*v	*
=	=
*-	*-
!!!system-decoration: {(s1,s2)}
